apps/app.mento.org/public/tokens/USDC.svg

<svg width="40" height="40" viewBox="0 0 40 40" fill="none" xmlns="http://www.w3.org/2000/svg">
<path d="M20 40C31.0834 40 40 31.0834 40 20C40 8.9166 31.0834 0 20 0C8.9166 0 0 8.9166 0 20C0 31.0834 8.9166 40 20 40Z" fill="#2775CA"/>
<path d="M25.4986 23.166C25.4986 20.2494 23.7486 19.2494 20.2486 18.8328C17.7486 18.4994 17.2486 17.8328 17.2486 16.666C17.2486 15.4992 18.082 14.7494 19.7486 14.7494C21.2486 14.7494 22.082 15.2494 22.4986 16.4994C22.582 16.7494 22.832 16.916 23.082 16.916H24.4152C24.7486 16.916 24.9986 16.666 24.9986 16.3328V16.2494C24.6652 14.416 23.1652 12.9994 21.2486 12.8328V10.8328C21.2486 10.4994 20.9986 10.2494 20.582 10.166H19.332C18.9986 10.166 18.7486 10.416 18.6652 10.8328V12.7494C16.1652 13.0828 14.582 14.7494 14.582 16.8328C14.582 19.5828 16.2486 20.666 19.7486 21.0828C22.082 21.4994 22.832 21.9994 22.832 23.3328C22.832 24.6662 21.6652 25.5828 20.082 25.5828C17.9152 25.5828 17.1652 24.666 16.9152 23.416C16.832 23.0828 16.582 22.916 16.332 22.916H14.9152C14.582 22.916 14.332 23.166 14.332 23.4994V23.5828C14.6652 25.666 15.9986 27.166 18.7486 27.5828V29.5828C18.7486 29.916 18.9986 30.166 19.4152 30.2494H20.6652C20.9986 30.2494 21.2486 29.9994 21.332 29.5828V27.5828C23.832 27.166 25.4986 25.416 25.4986 23.166Z" fill="white"/>
<path fill-rule="evenodd" clip-rule="evenodd" d="M8.33503 15.9161C5.91822 22.3329 9.25163 29.5829 15.7516 31.9161C16.0016 32.0829 16.2516 32.4161 16.2516 32.6661V33.8329C16.2516 33.9995 16.2516 34.0829 16.1682 34.1661C16.085 34.4995 15.7516 34.6661 15.4182 34.4995C10.7516 32.9995 7.16823 29.4161 5.66822 24.7495C3.16822 16.8329 7.50163 8.41606 15.4182 5.91606C15.5016 5.83286 15.6682 5.83286 15.7516 5.83286C16.085 5.91606 16.2516 6.16606 16.2516 6.49946V7.66606C16.2516 8.08286 16.085 8.33286 15.7516 8.49946C12.335 9.74946 9.58503 12.4161 8.33503 15.9161ZM23.8334 6.24961C23.9166 5.91621 24.25 5.74961 24.5834 5.91621C29.1666 7.41621 32.8334 10.9996 34.3334 15.7496C36.8334 23.6662 32.5 32.083 24.5834 34.583C24.5 34.6662 24.3334 34.6662 24.25 34.6662C23.9166 34.583 23.75 34.333 23.75 33.9996V32.833C23.75 32.4162 23.9166 32.1662 24.25 31.9996C27.6666 30.7496 30.4166 28.083 31.6666 24.583C34.0834 18.1662 30.75 10.9162 24.25 8.58301C24 8.41621 23.75 8.08301 23.75 7.74961V6.58301C23.75 6.41621 23.75 6.33301 23.8334 6.24961Z" fill="white"/>
</svg>

<svg xmlns="http://www.w3.org/2000/svg" width="40" height="40" fill="none" viewBox="0 0 40 40"><path fill="#2775CA" d="M20 40c11.083 0 20-8.917 20-20S31.083 0 20 0 0 8.917 0 20s8.917 20 20 20"/><path fill="#fff" d="M25.499 23.166c0-2.917-1.75-3.917-5.25-4.333-2.5-.334-3-1-3-2.167s.833-1.917 2.5-1.917c1.5 0 2.333.5 2.75 1.75.083.25.333.417.583.417h1.333a.57.57 0 0 0 .584-.583v-.084a4.16 4.16 0 0 0-3.75-3.416v-2c0-.334-.25-.584-.667-.667h-1.25c-.333 0-.583.25-.667.667v1.916c-2.5.334-4.083 2-4.083 4.084 0 2.75 1.667 3.833 5.167 4.25 2.333.416 3.083.916 3.083 2.25 0 1.333-1.167 2.25-2.75 2.25-2.167 0-2.917-.917-3.167-2.167-.083-.333-.333-.5-.583-.5h-1.417a.57.57 0 0 0-.583.583v.084c.333 2.083 1.667 3.583 4.417 4v2c0 .333.25.583.666.666h1.25c.334 0 .584-.25.667-.666v-2c2.5-.417 4.167-2.167 4.167-4.417"/><path fill="#fff" fill-rule="evenodd" d="M8.335 15.916c-2.417 6.417.917 13.667 7.417 16 .25.167.5.5.5.75v1.167c0 .166 0 .25-.084.333-.083.334-.416.5-.75.334a14.99 14.99 0 0 1-9.75-9.75c-2.5-7.917 1.834-16.334 9.75-18.834.084-.083.25-.083.334-.083.333.083.5.333.5.666v1.167c0 .417-.167.667-.5.833-3.417 1.25-6.167 3.917-7.417 7.417M23.833 6.25c.084-.334.417-.5.75-.334 4.584 1.5 8.25 5.084 9.75 9.834 2.5 7.916-1.833 16.333-9.75 18.833-.083.083-.25.083-.333.083-.333-.083-.5-.333-.5-.666v-1.167c0-.417.167-.667.5-.833 3.417-1.25 6.167-3.917 7.417-7.417 2.416-6.417-.917-13.667-7.417-16-.25-.167-.5-.5-.5-.833V6.583c0-.167 0-.25.083-.333" clip-rule="evenodd"/></svg>
